X:1
T:Title
%%score { ( 1 4 ) | ( 2 3 ) }
L:1/8
M:4/4
K:G
V:1 treble nm="Grand Piano"
V:4 treble 
V:2 treble 
V:3 treble 
V:1
 z4 z2[Q:1/4=100] D2 | B2 B2 B2 AB | c4 A2 D2 | A2 A2 A2 GA |[M:3/4] B6 |[M:1/4] D2 | %6
[M:4/4] B2 B2 [^GB]2 [FA]B | c4 A2 c2 | [GB]2 AG [CFA]2 [DFB]2 |[M:3/4] [B,DG]6 |[M:1/4] [A,DF]2 | %11
[M:4/4] [A,DF]2 [DA]2 [^CG]2 FE | F2 A4 A2 | A2 [Fd]2 [G^c]2 BA |[M:3/4] [Fd]6 |[M:1/4] z2 | %16
[M:4/4] [DGB]2 [DGB]2 [DGB]2 [FA][GB] | [DFc]4 [DFA]2 z2 | [DFA]2 [DFA]2 A2 GA |[M:3/4] B6 | %20
[M:1/4] D2 |[M:4/4] B2 B2 [^GB]2 [FA]B | [CAc]4 [CEA]2 [EAc]2 | [DGB]2 [CA]G [CFA]2 [DFB]2 | %24
[M:3/4] [B,DG]6 |] %25
V:2
 z8 | [G,DG]2 [G,DG]2 [G,DG]2 [CF][B,G] | [A,DF]4 [CDF]2 z2 | [CDF]2 [CDF]2 [CDF]2 D-[A,DF] | %4
[M:3/4] [G,DG]6 |[M:1/4] z2 |[M:4/4] [G,DG]2 [G,DG]2[K:bass] [E,D]2 z[K:treble] ^G | %7
 [A,CA]4 [A,CE]2 [A,EA]2 | z2 [D,D]2 z4 |[M:3/4] G,6 |[M:1/4] D,2 | %11
[M:4/4] D,2 [A,,F,]2 [E,A,]2 [A,,A,]2 | [D,A,D]2 [F,A,D]4 [G,A,^C]2 | %13
 [F,A,D]2 [D,A,]2 [E,A,]2 [A,G]2 |[M:3/4] [D,A,]6 |[M:1/4] D2 |[M:4/4] G,2 D,2 G,2 CB, | %17
 A,2 D,2 C2 D2 | z4[K:treble] z2 .[B,E]2 |[M:3/4] [G,DG]6 |[M:1/4] z2 | %21
[M:4/4] [G,DG]2 [G,DG]2[K:bass] [D,D]2 z[K:treble] ^G | A,4[K:bass] A,2 A,,2 | D,2 z B, D,2 D,2 | %24
[M:3/4] G,,6 |] %25
V:3
 x8 | z4 z2 D2 | x8 | z4 z2 .[B,E]2 |[M:3/4] x6 |[M:1/4] x2 | %6
[M:4/4] z4[K:bass] z2 [E,D]2[K:treble] | x8 | [D,D]2 CB, D,2 D,2 |[M:3/4] x6 |[M:1/4] x2 | %11
[M:4/4] x8 | x8 | x8 |[M:3/4] x6 |[M:1/4] x2 |[M:4/4] x8 | x8 | C2 D,2[K:treble] [CDF]2 D-[A,DF] | %19
[M:3/4] x6 |[M:1/4] x2 |[M:4/4] z4[K:bass] z2 [E,D]2[K:treble] | x4[K:bass] x4 | z2 D,2 z4 | %24
[M:3/4] x6 |] %25
V:4
 x8 | x8 | x8 | x8 |[M:3/4] x6 |[M:1/4] x2 |[M:4/4] x8 | x8 | x8 |[M:3/4] x6 |[M:1/4] x2 | %11
[M:4/4] z4 z2 ^C2 | x8 | x8 |[M:3/4] x6 |[M:1/4] x2 |[M:4/4] z4 z2 D2 | x8 | x8 |[M:3/4] x6 | %20
[M:1/4] x2 |[M:4/4] x8 | x8 | z2 D2 z4 |[M:3/4] x6 |] %25

